X:1
T:Title
%%score { 1 | 2 }
L:1/8
M:6/4
K:Bb
V:1 treble nm="Grand Piano"
V:2 bass 
V:1
 z6 z4[Q:1/4=63] [Bd]2 | [Bd]3 [Bd][cd][=Bd] [ce]4 [ce]2 | [Bd]6- [Bd]4 [Bd]2 | %3
 [Bf]4 [=Bf]2 [cf]4 [c=e]2 |[M:5/4] [cf]2- [cf]2- [cf]6 |[M:1/4] [Ae]2 | %6
[M:6/4] [Bd]3 [_Ad][=Ae][B=e] [Bf]4 [Bf]2 | [eg]6- [eg]4 [Bc]2 | [Bf]4 [Be]2 [Bd]4 [Ac]2 | %9
[M:5/4] [FB]2- [FB]2- [FB]6 |] %10
V:2
 z6 z4 [B,,F,]2 | [B,,F,]3 [B,,F,][A,,^F,][G,,G,] [C,G,]4 [A,,=F,]2 | [B,,F,]6- [B,,F,]4 [B,,F,]2 | %3
 [D,B,]4 [_D,_A,]2 [C,=A,]4 [C,B,]2 |[M:5/4] [F,,A,]2- [F,,A,]2- [F,,A,]6 |[M:1/4] [C,F,]2 | %6
[M:6/4] [B,,F,]3 [=B,,F,][C,F,][_D,G,] [=D,B,]4 [D,B,]2 | [E,B,]6- [E,B,]4 [E,G,]2 | %8
 [D,_A,]4 [E,G,]2 F,4 [F,,E,]2 |[M:5/4] [B,,D,]2- [B,,D,]2- [B,,D,]6 |] %10

